assets/images/simple-illustrations/simple-illustration__travelalerts.svg

<svg xmlns="http://www.w3.org/2000/svg" viewBox="0 0 48 48" fill="none">
<path d="M26.0468 5.64979L8.42381 5.68354L4.94141 8.76089L5.07643 37.9535C5.07643 37.9535 5.56306 41.2109 8.30005 41.8156C11.037 42.4204 23.5433 42.1785 25.6586 42.1785C27.774 42.1785 29.2733 38.8114 29.2733 38.8114C29.2733 38.8114 29.1101 11.9733 29.2508 9.64977C29.3914 7.32629 26.0496 5.64697 26.0496 5.64697L26.0468 5.64979Z" fill="#28736D"/>
<path d="M4.99195 38.2546C4.93851 40.5584 7.78238 41.7764 7.78238 41.7764L9.61923 41.9564L7.78238 39.7933V7.87493L9.71205 5.6499L7.78238 5.93682L5.19449 8.20123C5.19449 8.20123 5.04821 35.9508 4.99477 38.2546H4.99195Z" fill="#134038"/>
<path d="M27.0871 8.58105H9.82129V39.3798H27.2727L27.0871 8.58105Z" fill="#5AB0FF"/>
<path d="M17.7905 8.67669C17.5936 9.38555 18.0099 10.1591 18.6231 10.567C19.2364 10.9749 19.9987 11.0846 20.7356 11.1043C21.4726 11.1239 22.2153 11.0677 22.941 11.1886C23.1379 11.2224 23.3404 11.2702 23.4979 11.3912C23.6611 11.5121 23.7652 11.6978 23.8439 11.8862C24.3643 13.1071 24.0268 14.5135 24.2152 15.8272C24.2659 16.1732 24.3559 16.522 24.5472 16.8145C25.0732 17.6162 26.2293 17.7765 27.1379 17.4643V8.58105L17.7905 8.67669Z" fill="#8DC8FF"/>
<path d="M26.9419 19.7624C26.2161 19.6977 25.5523 20.2575 25.2597 20.9242C24.9644 21.5908 24.9587 22.3419 24.9587 23.0704C24.9587 24.1309 24.9531 25.1914 24.9531 26.2519C24.9531 27.0648 24.9531 27.9059 25.2682 28.6569C25.5832 29.408 26.2893 30.0549 27.105 30.0409L26.9475 19.7652L26.9419 19.7624Z" fill="#8DC8FF"/>
<path d="M25.2477 5.6499H9.07897C6.86829 5.6499 5.07617 7.44202 5.07617 9.6527V37.9536C5.07617 40.1643 6.86829 41.9564 9.07897 41.9564H25.2477C27.4584 41.9564 29.2505 40.1643 29.2505 37.9536V9.6527C29.2505 7.44202 27.4584 5.6499 25.2477 5.6499Z" stroke="#002140" stroke-linecap="round" stroke-linejoin="round"/>
<path d="M11.4589 41.9564C9.24789 41.9564 7.45605 40.1646 7.45605 37.9536V9.6527C7.45605 7.44174 9.24789 5.6499 11.4589 5.6499" stroke="#002140" stroke-linecap="round" stroke-linejoin="round"/>
<path d="M26.3843 8.51074H10.6797C10.2245 8.51074 9.85547 8.87974 9.85547 9.33493V38.5669C9.85547 39.0221 10.2245 39.3911 10.6797 39.3911H26.3843C26.8394 39.3911 27.2084 39.0221 27.2084 38.5669V9.33493C27.2084 8.87974 26.8394 8.51074 26.3843 8.51074Z" stroke="#002140" stroke-linecap="round" stroke-linejoin="round"/>
<rect x="12.8594" y="12.1968" width="30.1564" height="10.1273" rx="2.5" fill="#FFFAF0" stroke="#002140"/>
<rect x="12.8594" y="24.8076" width="30.1564" height="10.1273" rx="2.5" fill="#FFFAF0" stroke="#002140"/>
<path d="M17.1052 14.7131C17.0691 14.5949 17.1669 14.478 17.3018 14.478H18.1313C18.2086 14.478 18.2792 14.5177 18.3138 14.5805L19.6854 17.0744H21.7254C22.0634 17.0744 22.3374 17.3235 22.3374 17.6308C22.3374 17.938 22.0634 18.1871 21.7254 18.1871H19.6854L18.3138 20.681C18.2792 20.7438 18.2086 20.7835 18.1313 20.7835H17.3018C17.1669 20.7835 17.0691 20.6666 17.1052 20.5484L17.8267 18.1871H16.5574L16.2639 18.9876C16.2361 19.0633 16.1582 19.1144 16.0704 19.1144H15.2764C15.1372 19.1144 15.0389 18.9904 15.0829 18.8703L15.5374 17.6308L15.0829 16.3912C15.0389 16.2711 15.1372 16.1471 15.2764 16.1471H16.0704C16.1582 16.1471 16.2361 16.1982 16.2639 16.2739L16.5574 17.0744H17.8267L17.1052 14.7131Z" fill="#002140"/>
<path d="M17.1052 27.3244C17.0691 27.2063 17.1669 27.0894 17.3018 27.0894H18.1313C18.2086 27.0894 18.2792 27.129 18.3138 27.1919L19.6854 29.6857H21.7254C22.0634 29.6857 22.3374 29.9348 22.3374 30.2421C22.3374 30.5494 22.0634 30.7985 21.7254 30.7985H19.6854L18.3138 33.2923C18.2792 33.3551 18.2086 33.3948 18.1313 33.3948H17.3018C17.1669 33.3948 17.0691 33.2779 17.1052 33.1597L17.8267 30.7985H16.5574L16.2639 31.5989C16.2361 31.6746 16.1582 31.7257 16.0704 31.7257H15.2764C15.1372 31.7257 15.0389 31.6017 15.0829 31.4816L15.5374 30.2421L15.0829 29.0026C15.0389 28.8825 15.1372 28.7584 15.2764 28.7584H16.0704C16.1582 28.7584 16.2361 28.8095 16.2639 28.8853L16.5574 29.6857H17.8267L17.1052 27.3244Z" fill="#002140"/>
<rect x="24.2285" y="14.6641" width="10.3855" height="1.41177" fill="#002140"/>
<rect x="24.2285" y="27.2749" width="10.3855" height="1.41177" fill="#002140"/>
<rect x="24.2285" y="18.373" width="15.5782" height="1.41177" fill="#002140"/>
<rect x="24.2285" y="30.9839" width="15.5782" height="1.41177" fill="#002140"/>
</svg>

<svg xmlns="http://www.w3.org/2000/svg" fill="none" viewBox="0 0 48 48"><path fill="#28736d" d="m26.047 5.65-17.623.034L4.94 8.76l.135 29.193s.487 3.257 3.224 3.862c2.737.604 15.243.362 17.359.362 2.115 0 3.614-3.367 3.614-3.367s-.163-26.838-.022-29.161c.14-2.324-3.201-4.003-3.201-4.003z"/><path fill="#134038" d="M4.992 38.255c-.053 2.303 2.79 3.521 2.79 3.521l1.837.18-1.837-2.163V7.875l1.93-2.225-1.93.287L5.194 8.2s-.146 27.75-.2 30.054z"/><path fill="#5ab0ff" d="M27.087 8.581H9.821V39.38h17.452z"/><path fill="#8dc8ff" d="M17.79 8.677c-.196.709.22 1.482.833 1.89s1.376.518 2.113.537 1.48-.036 2.205.085c.197.033.4.081.557.202.163.121.267.307.346.495.52 1.221.183 2.628.371 3.941.05.346.14.695.332.987.526.802 1.682.962 2.59.65V8.581zm9.152 11.085c-.726-.064-1.39.495-1.682 1.162-.296.667-.301 1.418-.301 2.146 0 1.06-.006 2.121-.006 3.182 0 .813 0 1.654.315 2.405s1.021 1.398 1.837 1.384l-.157-10.276z"/><path stroke="#002140" stroke-linecap="round" stroke-linejoin="round" d="M25.248 5.65H9.079a4.003 4.003 0 0 0-4.003 4.003v28.3a4.003 4.003 0 0 0 4.003 4.003h16.169a4.003 4.003 0 0 0 4.002-4.002V9.653a4.003 4.003 0 0 0-4.002-4.003"/><path stroke="#002140" stroke-linecap="round" stroke-linejoin="round" d="M11.459 41.956a4 4 0 0 1-4.003-4.002V9.653A4 4 0 0 1 11.46 5.65"/><path stroke="#002140" stroke-linecap="round" stroke-linejoin="round" d="M26.384 8.51H10.68a.824.824 0 0 0-.825.825v29.232c0 .455.37.824.825.824h15.704a.824.824 0 0 0 .824-.824V9.335a.824.824 0 0 0-.824-.824"/><rect width="30.156" height="10.127" x="12.859" y="12.197" fill="#fffaf0" stroke="#002140" rx="2.5"/><rect width="30.156" height="10.127" x="12.859" y="24.808" fill="#fffaf0" stroke="#002140" rx="2.5"/><path fill="#002140" d="M17.105 14.713c-.036-.118.062-.235.197-.235h.83c.077 0 .147.04.182.103l1.371 2.493h2.04c.338 0 .612.25.612.557s-.274.556-.612.556h-2.04l-1.371 2.494a.21.21 0 0 1-.183.102h-.83c-.134 0-.232-.116-.196-.235l.722-2.36h-1.27l-.293.8a.2.2 0 0 1-.194.126h-.794c-.139 0-.237-.124-.193-.244l.454-1.24-.454-1.239c-.044-.12.054-.244.193-.244h.794c.088 0 .166.051.194.127l.293.8h1.27zm0 12.611c-.036-.118.062-.235.197-.235h.83c.077 0 .147.04.182.103l1.371 2.494h2.04c.338 0 .612.249.612.556s-.274.556-.612.556h-2.04l-1.371 2.494a.21.21 0 0 1-.183.103h-.83c-.134 0-.232-.117-.196-.235l.722-2.361h-1.27l-.293.8a.2.2 0 0 1-.194.127h-.794c-.139 0-.237-.124-.193-.244l.454-1.24-.454-1.24c-.044-.12.054-.244.193-.244h.794c.088 0 .166.052.194.127l.293.8h1.27zm7.124-12.66h10.386v1.412H24.229zm0 12.611h10.386v1.412H24.229zm0-8.902h15.578v1.412H24.229zm0 12.611h15.578v1.412H24.229z"/></svg>
